X: 1
T: Is\"a-Kullan jenkka
T: "Dear Dad Schottische"
O: from Topi & Aili M\"akel\"a
R: shottish
Z: 2019 John Chambers <jc:trillian.mit.edu>
M: 2/4
L: 1/16
K: D
V: 1 staves=2
|::: fedc edcB | A2Ad f2f2 ||\
[1,3 g2gf e2e2 | a2ag f2d2 :|\
[2,4 gggf e2c2 | d2d2 d4   :|
|::: A2Ad f2f2 | A2Ac e2f2 | gfed c2Bc ||\
[1,3 d2df A4  :|[2,4 d2d2 d4 :|
V: 2
|:::  "D"dcBA cBAG |      F2FA d2d2 ||\
[1,3 "A7"e2ed c2c2 |   "D"f2fe d2A2 :|\
[2,4 "A7"eeed c2A2 |   "D"F2F2 F4   :|
|:::  "D"F2FA d2d2 |  "A7"E2EA c2d2 | edcB A2EA ||\
[1,3 "D"F2Fd F4   :|[2,4 "D"F2F2 F4 :|
